assets/img/hr/hero-hr-head-left-top.svg

<?xml version="1.0" encoding="UTF-8" standalone="no"?>
<!DOCTYPE svg PUBLIC "-//W3C//DTD SVG 1.1//EN" "http://www.w3.org/Graphics/SVG/1.1/DTD/svg11.dtd">
<svg xmlns="http://www.w3.org/2000/svg" xmlns:xlink="http://www.w3.org/1999/xlink" width="100%" height="100%" version="1.1" viewBox="0 0 430 300" xml:space="preserve" preserveAspectRatio="none">
    <defs/>
    <g id="head-left">
        <path fill="#FFFFFF" d="M70+0C22.9159+0+0+65.4019+0+100C0+150+0+340+0+340C0+360+10+430+80+430C117.355+430+143.754+398.085+147.062+362.625C149.776+333.535+160.781+311.406+160.781+311.406C160.781+311.406+142.075+311.251+119.781+311.438C100.604+311.598+88.0312+317+88.0312+317C88.0312+317+101.725+333.713+102.25+354.781C102.657+371.115+90.5565+378.261+78.4062+377.594C63.2372+376.76+53.8426+360.353+53.9062+344.438C54.0729+302.764+100+300+120+300C120+300+229.306+300+318.344+300C321.348+294.568+327.344+281.565+327.438+264.25C327.541+245.037+320.953+231.825+320+230C258.398+230+170.033+229.425+134.344+215.844C69.1549+191.036+33.2623+134.756+32.3125+85.9375C31.4085+39.4726+52.5527+22.5287+70.3438+22.4375C85.1637+22.3615+91.0098+30.7512+90.7812+39.4375C90.5527+48.1238+86.804+55.9427+77.7188+56.4062C69.3047+56.8355+60.9375+51.5938+60.9375+51.5938C60.9375+51.5938+64.4071+63.8405+78.25+63.6562C94.0245+63.4463+103.969+51.8371+103.969+34.5938C103.969+21.0574+95.9995-3.8147e-06+70+0ZM15.5+105.25C20.9007+105.474+27.047+110.798+26.4375+123.25C26.0444+131.281+25.272+135.301+23.875+140.562C23.875+140.562+22.9231+139.965+22.25+139.438C21.5769+138.91+21.125+138.438+21.125+138.438C22.6374+133.468+23.3998+129.39+23.4375+123.25C23.506+112.092+19.1189+107.629+15.3438+107.719C14.8044+107.732+14.2811+107.839+13.7812+108.031C9.81616+109.56+6.19345+117.603+9.875+126.75C13.1747+134.948+19.2192+140.548+33.4688+150.656C45.6205+159.277+59.4883+170.318+61.5625+185.219C62.1165+189.199+62.2876+192.649+62.2812+195.844L60.8438+194.531L58.5625+192.969C58.3271+190.92+58.0054+188.747+57.5312+186.344C54.6921+171.952+45.2584+164.936+32.4062+155.625C21.1123+147.443+8.73217+137.932+6.125+128.438C2.86564+116.567+7.63793+106.769+13.25+105.438C13.9701+105.267+14.7285+105.218+15.5+105.25ZM18.2188+147.812C18.4883+148.016+18.8729+148.31+19.5+148.812C20.1263+149.314+20.8363+149.853+21.0312+150C20.3709+153.656+20.2629+157.392+20.375+162.719C20.7255+179.365+40.3602+188.629+45.7188+189.469C66.0764+193.097+75.5691+217.904+96.5+239.125C96.5+239.125+93.4778+227.348+102.469+221.094C108.466+216.922+116.838+218.955+119.688+223.281C126.901+234.232+114.281+237.094+114.281+237.094C114.281+237.094+122.365+234.141+116.281+227.188C114.038+224.624+109.328+223.953+106.125+227.438C100.368+233.7+105.852+246.866+109.219+249.688C119.074+257.947+131.785+262.794+146.875+263.562C152.252+263.836+156.925+263.522+161.281+262.938C162.123+263.615+164.883+265.89+168.656+268.5C171.778+270.659+173.505+271.621+175.031+272.531C166.589+275.652+157.049+277.762+144.562+276.594C81.1623+270.664+75.6233+197.282+46.1562+195.031C38.4513+194.443+34.329+196.982+34.0625+201.688C33.8076+206.19+35.0311+209.474+38.9688+209.5C44.7961+209.539+45.5312+207.094+45.5312+207.094C45.5312+207.094+44.8079+212.518+38.2812+212.031C34.8282+211.774+29.4409+210.116+29.75+201.156C29.8687+197.714+32.2828+193.511+36.4062+191.531C32.1135+189.299+15.7576+179.405+15.25+162.719C15.0918+157.517+16.5245+153.003+18.2188+147.812ZM252.969+166.406C208.479+166.739+178.344+200.25+178.344+200.25C178.344+200.25+181.14+169.082+154+169.875C143.513+170.181+140.113+176.722+139.969+182.094C139.798+188.442+145.594+191.063+145.594+191.062C145.594+191.063+143.088+185.084+144.188+182C145.571+178.12+147.603+176.295+152.156+176.344C158.272+176.409+164.042+181.828+163.969+193.781C163.883+207.751+163.781+212.937+163.781+212.938C163.781+212.938+169.695+214.412+176.969+215.375C184.243+216.338+192.875+216.812+192.875+216.812C192.875+216.812+217.664+184.997+260.156+186.312C316.908+188.069+333.312+229.127+333.312+265C333.312+305.498+309.7+322.236+293.594+322.406C282.39+322.525+274.563+316.875+274.562+316.875C274.562+316.875+280.558+326.325+293.625+326.375C317.77+326.467+342.576+297.968+344.875+266.031C349.856+196.852+288.973+166.137+252.969+166.406ZM58.5938+203.438C59.0361+203.725+59.0631+203.632+59.5938+204.094C60.3942+204.79+60.6395+205.262+61.25+206.062C59.7778+212.563+56.9597+217.346+53.5625+221.812C55.911+215.596+57.9407+210.325+58.5938+203.438ZM29.3614+229.416C29.3614+229.416+46.4704+228.512+63.5007+239.35C74.5+246.349+84.7481+263.003+90+270C79.9959+259.131+67.9079+255.966+60.926+254.189C53.3311+252.256+35.1033+252.532+24.5312+255.312C24.5312+255.312+24.3731+248.718+25.5806+242.243C26.7882+235.769+29.3614+229.416+29.3614+229.416ZM346.969+230C348.194+233.676+352.009+246.492+351.531+263.469C351.039+280.955+344.513+294.222+341.125+300C379.54+300+409.314+300+430+300L430+230C416.684+230+376.364+230+346.969+230ZM155.719+232.406C167.104+233.056+161.75+245.625+161.75+245.625C161.75+245.625+164.068+236.311+156.781+235.844C152.671+235.58+151.495+237.612+151.312+239.969C150.659+248.417+164.146+257.274+175.688+263.781C177.443+264.771+179.14+265.723+180.75+266.594C193.695+273.598+221.917+280.097+252.562+271.969C254.703+271.401+256.576+270.671+258.531+270L261.438+272.156C259.086+273.251+256.677+274.347+254+275.344C226.791+285.473+198.313+284.233+174.906+269.031C154.111+255.525+146.764+249.342+147.312+239.312C147.557+234.837+151.633+232.173+155.719+232.406ZM216.438+247.406C218.868+247.295+221.438+247.334+224.156+247.5C262.446+249.844+275.594+280.276+295.438+280.812C303.185+281.022+304.898+277.484+305.281+274.406C305.718+270.899+302.091+267.079+298.094+266.844C293.785+266.59+289.969+271.375+289.969+271.375C289.969+271.375+291.429+263.198+298.469+263.469C303.582+263.665+310.526+268.515+310.469+274.594C310.412+280.672+308.555+287.759+295.375+287.062C269.153+285.677+271.46+261.908+223.969+257.875C209.298+256.629+198.944+261.751+188+267C187.384+266.718+182.786+264.607+179.219+262.594C176.462+261.038+175.798+260.345+175+259.719C188.817+255.164+199.427+248.188+216.438+247.406ZM290.844+249.5C290.844+249.5+285.407+257.77+272.469+266.094L270.75+264.844C284.262+257.715+290.844+249.5+290.844+249.5ZM58.4125+261.46C72.2866+263.899+81.921+269.55+90+280C86.7273+280.487+73.1018+279.718+58.1018+282.218C43.1018+284.718+30+290+30+290C30+290+27.3574+283.797+26.0698+277.725C24.7822+271.652+24.8496+265.709+24.8496+265.709C24.8496+265.709+44.6278+259.036+58.4125+261.46Z" opacity="1"/>
    </g>
</svg>

<svg xmlns="http://www.w3.org/2000/svg" width="100%" height="100%" viewBox="0 0 430 300" preserveAspectRatio="none"><path fill="#FFF" d="M70 0C22.916 0 0 65.402 0 100v240c0 20 10 90 80 90 37.355 0 63.754-31.915 67.062-67.375 2.714-29.09 13.719-51.219 13.719-51.219s-18.706-.155-41 .032c-19.177.16-31.75 5.562-31.75 5.562s13.694 16.713 14.219 37.781c.407 16.334-11.694 23.48-23.844 22.813-15.169-.834-24.563-17.241-24.5-33.156C54.073 302.764 100 300 120 300h198.344c3.004-5.432 9-18.435 9.094-35.75.103-19.213-6.485-32.425-7.438-34.25-61.602 0-149.967-.575-185.656-14.156-65.19-24.808-101.082-81.088-102.031-129.906-.905-46.465 20.24-63.41 38.03-63.5 14.82-.076 20.667 8.313 20.438 17-.228 8.686-3.977 16.505-13.062 16.968-8.414.43-16.781-4.812-16.781-4.812s3.47 12.246 17.312 12.062c15.775-.21 25.719-11.819 25.719-29.062C103.969 21.057 95.999 0 70 0zM15.5 105.25c5.4.224 11.547 5.548 10.938 18-.394 8.031-1.166 12.051-2.563 17.312 0 0-.952-.597-1.625-1.124-.673-.528-1.125-1-1.125-1 1.512-4.97 2.275-9.048 2.313-15.188.068-11.158-4.32-15.621-8.094-15.531-.54.013-1.063.12-1.563.312-3.965 1.529-7.588 9.572-3.906 18.719 3.3 8.198 9.344 13.798 23.594 23.906 12.151 8.621 26.02 19.662 28.093 34.563.555 3.98.726 7.43.72 10.625l-1.438-1.313-2.282-1.562a82.437 82.437 0 0 0-1.03-6.625c-2.84-14.392-12.274-21.408-25.126-30.719-11.294-8.182-23.674-17.693-26.281-27.187-3.26-11.871 1.513-21.669 7.125-23 .72-.171 1.479-.22 2.25-.188zm2.719 42.562c.27.204.654.498 1.281 1A74.442 74.442 0 0 0 21.031 150c-.66 3.656-.768 7.392-.656 12.719.35 16.646 19.985 25.91 25.344 26.75 20.357 3.628 29.85 28.435 50.781 49.656 0 0-3.022-11.777 5.969-18.031 5.997-4.172 14.369-2.139 17.219 2.187 7.213 10.951-5.407 13.813-5.407 13.813s8.084-2.953 2-9.906c-2.243-2.564-6.953-3.235-10.156.25-5.757 6.262-.273 19.428 3.094 22.25 9.855 8.259 22.566 13.106 37.656 13.874 5.377.274 10.05-.04 14.406-.624.842.677 3.602 2.952 7.375 5.562 3.122 2.159 4.849 3.121 6.375 4.031-8.442 3.121-17.982 5.231-30.469 4.063-63.4-5.93-68.939-79.312-98.406-81.563-7.705-.588-11.827 1.951-12.093 6.657-.255 4.502.968 7.786 4.906 7.812 5.827.039 6.562-2.406 6.562-2.406s-.723 5.424-7.25 4.937c-3.453-.257-8.84-1.915-8.531-10.875.119-3.442 2.533-7.645 6.656-9.625-4.292-2.232-20.648-12.126-21.156-28.812-.158-5.202 1.274-9.716 2.969-14.907zm234.75 18.594c-44.49.333-74.625 33.844-74.625 33.844s2.796-31.168-24.344-30.375c-10.487.306-13.887 6.847-14.031 12.219-.171 6.348 5.625 8.969 5.625 8.968 0 .001-2.506-5.978-1.406-9.062 1.383-3.88 3.415-5.705 7.968-5.656 6.116.065 11.886 5.484 11.813 17.437-.086 13.97-.188 19.156-.188 19.157 0 0 5.914 1.474 13.188 2.437 7.274.963 15.906 1.437 15.906 1.437s24.789-31.815 67.281-30.5c56.752 1.757 73.156 42.815 73.156 78.688 0 40.498-23.612 57.236-39.718 57.406-11.204.119-19.031-5.531-19.032-5.531 0 0 5.996 9.45 19.063 9.5 24.145.092 48.951-28.407 51.25-60.344 4.981-69.179-55.902-99.894-91.906-99.625zM58.594 203.438c.442.287.47.194 1 .656.8.696 1.045 1.168 1.656 1.968-1.472 6.501-4.29 11.284-7.688 15.75 2.349-6.216 4.379-11.487 5.032-18.374zM29.36 229.416s17.11-.904 34.14 9.934C74.5 246.349 84.748 263.003 90 270c-10.004-10.869-22.092-14.034-29.074-15.811-7.595-1.933-25.823-1.657-36.395 1.123 0 0-.158-6.594 1.05-13.069 1.207-6.474 3.78-12.827 3.78-12.827zM346.97 230c1.225 3.676 5.04 16.492 4.562 33.469-.492 17.486-7.018 30.753-10.406 36.531H430v-70h-83.031zm-191.25 2.406c11.385.65 6.031 13.219 6.031 13.219s2.318-9.314-4.969-9.781c-4.11-.264-5.286 1.768-5.469 4.125-.653 8.448 12.834 17.305 24.376 23.812 1.755.99 3.452 1.942 5.062 2.813 12.945 7.004 41.167 13.503 71.812 5.375 2.141-.568 4.014-1.298 5.969-1.969l2.907 2.156c-2.352 1.095-4.761 2.191-7.438 3.188-27.209 10.129-55.687 8.889-79.094-6.313-20.795-13.506-28.142-19.689-27.594-29.719.245-4.475 4.321-7.139 8.407-6.906zm60.719 15c2.43-.111 5-.072 7.718.094 38.29 2.344 51.438 32.776 71.282 33.312 7.747.21 9.46-3.328 9.843-6.406.437-3.507-3.19-7.327-7.187-7.562-4.309-.254-8.125 4.531-8.125 4.531s1.46-8.177 8.5-7.906c5.113.196 12.057 5.046 12 11.125-.057 6.078-1.914 13.165-15.094 12.468-26.222-1.385-23.915-25.154-71.406-29.187-14.671-1.246-25.025 3.876-35.969 9.125-.616-.282-5.214-2.393-8.781-4.406-2.757-1.556-3.421-2.249-4.219-2.875 13.817-4.555 24.427-11.531 41.438-12.313zm74.406 2.094s-5.437 8.27-18.375 16.594l-1.719-1.25c13.512-7.129 20.094-15.344 20.094-15.344zM58.413 261.46C72.286 263.899 81.92 269.55 90 280c-3.273.487-16.898-.282-31.898 2.218S30 290 30 290s-2.643-6.203-3.93-12.275c-1.288-6.073-1.22-12.016-1.22-12.016s19.778-6.673 33.563-4.249z"/></svg>
